X:1
T:Acht Marienlieder
T:Sei, Mutter der Barmherzigkeit, sei, Königin, gegrüßet
T:Max Reger
T:Sei, Mutter der Barmherzigkeit, sei, Königin, gegrüßet
T:Nr. 2 aus Acht Marienlieder, Op 61 d
T:CPDL - Creative Commons Attribution Non Commercial 3.0
T:CPDL - Creative Commons Attribution Non Commercial 3.0
C:Max Reger
Z:CPDL - Creative Commons Attribution Non Commercial 3.0
%%score [ 1 2 3 4 ]
L:1/8
Q:1/4=120
M:4/4
K:Eb
V:1 treble nm="Sopran"
V:2 treble nm="Alt"
V:3 treble-8 nm="Tenor"
V:4 bass nm="Bass"
V:1
!p!"^Langsam"!<(! B2 | A3!<)! G F2 G2 | c3!>(! B B2!>)!!<(! B2 | e3!<)! d B2 df | %4
w: 1.~Sei,|Mut- ter der Barm-|her- zig- keit, sei,|Kö- ni- gin ge- *|
!>(! c4 B2!>)!"^meno" G2 |!p!!<(! c3 B G2 Ac | e3 _d c2!<)! A2 | c2 BA G3 A | %8
w: grü- ßet, des|1.~Le- bens Trost und _|Sü- ßig- keit, durch|die uns _ Trost zu-|
!>(! (G3 F) E2!>)! z2 | z2!p! e2 d2 c2 | (f4 B2) cd |!>(! e3 d!>)! d2!<(! B2 | %12
w: flie- * ßet!|1.~Zu dir, o|Mut- * ter _|ru- fen wir, mit|
 _d2!<)! _c2!>(! c3 B!>)! | A2"^molto espressivo"!<(! B2 =c2 =de!<)! | (e2 B2 G2) A2 | %15
w: Trä- nen seuf- zen|1.~wir, zu dir, o *|Mut- * * ter,|
[Q:1/4=120]"^ritard." (G2!>(! B4-) BD!>)! |!pp! !fermata!E4 z2 |] %17
w: ru- * * fen|wir.|
V:2
!p!!<(! E2 | E3!<)! E D2 E2 | E2!>(! D2 E2!>)!!<(! F2 | G3!<)! F D2 F2 | %4
!>(! G2 FE D2!>)!"^meno" _D2 |!p!!<(! C2 _D2 C2 CF | F2 G2 G2!<)! F2 | A2 GF FE E2 | %8
!>(! D4 B,2!>)!!p!"^1.  Zu\n2. Nach" B2 | %9
"^1. dir,_____________\n2. die        -"!<(! (A2 GA B2)!<)! A2 | (A4 GF) ED | %11
!>(! G2 =A2!>)! B2!<(! F2 | B2!<)! _A2!>(! A3 G!>)! | A2!<(! GF EF ^F2!<)! | (G2 =F2 =E2) F2 | %15
 (_E3!>(! C E2 D)B,!>)! |!pp! !fermata!B,4 z2 |] %17
V:3
!p!!<(! G2 | c3!<)! B A2 B2 | A2!>(! F2 G2!>)!!<(! B2 | B3!<)! =A B2 B2 | %4
w: 2.~O|wend' dein gü- tig|An- ge- sicht auf|uns vom Him- mels-|
!>(! (B2 =A2) B2!>)!"^meno" B2 |!p!!<(! AG F2 =E2 FA | A2 B2 c2!<)! c2 | _d2 =d2 dc _c2 | %8
w: thro- * ne, ver-|2.~sag' _ uns dei- ne _|Für- bitt' nicht bei|Je- su, dei- * nem|
!>(! (B=A _A2) G2!>)! z2 | z4 z2!p! f2 | e2 d2 ed c=B |!>(! c2 f2!>)! f2!<(! d2 | %12
w: Soh- * * ne.|2.~Nach|die- sem E- * lend _|zeig' uns ihn, bei|
 e2!<)! e2!>(! _f2 e_d!>)! | _c2!<(! e_d =c2 c2!<)! | (Bc _d2 c2) c2 | (BA!>(! G2 FGA)A!>)! | %16
w: ihm sei uns'- re _|2.~Mitt- le- * rin, sei|uns'- * * * re|Mitt- * * * * * le-|
!pp! !fermata!G4 z2 |] %17
w: rin.|
V:4
!p!!<(! E,2 | E,3!<)! E, E,2 E,2 | E,2!>(! E,2 E,2!>)!!<(! D,2 | C,3!<)! F, G,2 D,2 | %4
!>(! (E,2 F,2) B,,2!>)!"^meno" E,2 |!p!!<(! A,,2 B,,2 C,2 F,2 | E,2 E,2 =E,2!<)! F,2 | %7
 B,,3 =B,, C,2 A,,2 |!>(! _B,,4 E,2!>)! z2 | z8 | z8 | z4"^1. mit____\n2. bei____" (_B,2!<(! A,2) | %12
 G,2!<)! A,2!>(! _D,2 E,2!>)! | _F,2!<(! E,2 A,,2 =A,,2!<)! | B,,6 _A,,2 | B,,6-!>(! B,,B,,!>)! | %16
!pp! !fermata!E,4 z2 |] %17

